1-js/08-prototypes/01-prototype-inheritance/proto-animal-rabbit-chain.svg

<?xml version="1.0" encoding="UTF-8"?>
<svg width="206px" height="258px" viewBox="0 0 206 258" version="1.1" xmlns="http://www.w3.org/2000/svg" xmlns:xlink="http://www.w3.org/1999/xlink">
    <!-- Generator: sketchtool 61.2 (101010) - https://sketch.com -->
    <title>proto-animal-rabbit-chain.svg</title>
    <desc>Created with sketchtool.</desc>
    <g id="inheritance" stroke="none" stroke-width="1" fill="none" fill-rule="evenodd">
        <g id="proto-animal-rabbit-chain.svg">
            <rect id="Rectangle-1" stroke="#E8C48E" stroke-width="2" fill="#FFF9EB" x="14" y="23" width="134" height="48"></rect>
            <text id="eats:-true" font-family="PTMono-Regular, PT Mono" font-size="14" font-weight="normal" fill="#8A704D">
                <tspan x="24" y="42">eats: true</tspan>
                <tspan x="24" y="57">walk: function</tspan>
            </text>
            <text id="animal" font-family="PTMono-Regular, PT Mono" font-size="14" font-weight="normal" fill="#8A704D">
                <tspan x="13" y="15">animal</tspan>
            </text>
            <rect id="Rectangle-1" stroke="#E8C48E" stroke-width="2" fill="#FFF9EB" x="14" y="134" width="134" height="28"></rect>
            <text id="jumps:-true" font-family="PTMono-Regular, PT Mono" font-size="14" font-weight="normal" fill="#8A704D">
                <tspan x="24" y="151">jumps: true</tspan>
            </text>
            <text id="rabbit" font-family="PTMono-Regular, PT Mono" font-size="14" font-weight="normal" fill="#8A704D">
                <tspan x="13" y="126">rabbit</tspan>
            </text>
            <path id="Line" d="M78.5,83.5 L85.5,97.5 L79.5,97.5 L79.5,125.5 L77.5,125.5 L77.5,97.5 L71.5,97.5 L78.5,83.5 Z" fill="#EE6B47" fill-rule="nonzero"></path>
            <text id="[[Prototype]]" font-family="PTMono-Regular, PT Mono" font-size="14" font-weight="normal" fill="#8A704D">
                <tspan x="88" y="105">[[Prototype]]</tspan>
            </text>
            <rect id="Rectangle-1-Copy" stroke="#E8C48E" stroke-width="2" fill="#FFF9EB" x="14" y="227" width="134" height="28"></rect>
            <text id="earLength:-10" font-family="PTMono-Regular, PT Mono" font-size="14" font-weight="normal" fill="#8A704D">
                <tspan x="24" y="244">earLength: 10</tspan>
            </text>
            <text id="longEar" font-family="PTMono-Regular, PT Mono" font-size="14" font-weight="normal" fill="#8A704D">
                <tspan x="13" y="219">longEar</tspan>
            </text>
            <path id="Line-Copy" d="M78.5,176.5 L85.5,190.5 L79.5,190.5 L79.5,218.5 L77.5,218.5 L77.5,190.5 L71.5,190.5 L78.5,176.5 Z" fill="#EE6B47" fill-rule="nonzero"></path>
            <text id="[[Prototype]]-Copy" font-family="PTMono-Regular, PT Mono" font-size="14" font-weight="normal" fill="#8A704D">
                <tspan x="88" y="198">[[Prototype]]</tspan>
            </text>
        </g>
    </g>
</svg>

<svg xmlns="http://www.w3.org/2000/svg" width="206" height="258" viewBox="0 0 206 258"><defs><style>@import url(https://fonts.googleapis.com/css?family=Open+Sans:bold,italic,bolditalic%7CPT+Mono);@font-face{font-family:&apos;PT Mono&apos;;font-weight:700;font-style:normal;src:local(&apos;PT MonoBold&apos;),url(/font/PTMonoBold.woff2) format(&apos;woff2&apos;),url(/font/PTMonoBold.woff) format(&apos;woff&apos;),url(/font/PTMonoBold.ttf) format(&apos;truetype&apos;)}</style></defs><g id="inheritance" fill="none" fill-rule="evenodd" stroke="none" stroke-width="1"><g id="proto-animal-rabbit-chain.svg"><path id="Rectangle-1" fill="#FFF9EB" stroke="#E8C48E" stroke-width="2" d="M14 23h134v48H14z"/><text id="eats:-true" fill="#8A704D" font-family="PTMono-Regular, PT Mono" font-size="14" font-weight="normal"><tspan x="24" y="42">eats: true</tspan> <tspan x="24" y="57">walk: function</tspan></text><text id="animal" fill="#8A704D" font-family="PTMono-Regular, PT Mono" font-size="14" font-weight="normal"><tspan x="13" y="15">animal</tspan></text><path id="Rectangle-1" fill="#FFF9EB" stroke="#E8C48E" stroke-width="2" d="M14 134h134v28H14z"/><text id="jumps:-true" fill="#8A704D" font-family="PTMono-Regular, PT Mono" font-size="14" font-weight="normal"><tspan x="24" y="151">jumps: true</tspan></text><text id="rabbit" fill="#8A704D" font-family="PTMono-Regular, PT Mono" font-size="14" font-weight="normal"><tspan x="13" y="126">rabbit</tspan></text><path id="Line" fill="#EE6B47" fill-rule="nonzero" d="M78.5 83.5l7 14h-6v28h-2v-28h-6l7-14z"/><text id="[[Prototype]]" fill="#8A704D" font-family="PTMono-Regular, PT Mono" font-size="14" font-weight="normal"><tspan x="88" y="105">[[Prototype]]</tspan></text><path id="Rectangle-1-Copy" fill="#FFF9EB" stroke="#E8C48E" stroke-width="2" d="M14 227h134v28H14z"/><text id="earLength:-10" fill="#8A704D" font-family="PTMono-Regular, PT Mono" font-size="14" font-weight="normal"><tspan x="24" y="244">earLength: 10</tspan></text><text id="longEar" fill="#8A704D" font-family="PTMono-Regular, PT Mono" font-size="14" font-weight="normal"><tspan x="13" y="219">longEar</tspan></text><path id="Line-Copy" fill="#EE6B47" fill-rule="nonzero" d="M78.5 176.5l7 14h-6v28h-2v-28h-6l7-14z"/><text id="[[Prototype]]-Copy" fill="#8A704D" font-family="PTMono-Regular, PT Mono" font-size="14" font-weight="normal"><tspan x="88" y="198">[[Prototype]]</tspan></text></g></g></svg>
